; generated by PrusaSlicer 2.3.1+win64 on 2022-03-10 at 07:42:03 UTC


;
;

;
;
; 

; external perimeters extrusion width = 0.45mm
; perimeters extrusion width = 0.45mm
; infill extrusion width = 0.45mm
; solid infill extrusion width = 0.45mm
; top infill extrusion width = 0.40mm
; first layer extrusion width = 0.42mm

M73 P0 R71
M201 X1250 Y1250 Z400 E5000 ; sets maximum accelerations, mm/sec^2
M203 X180 Y180 Z12 E80 ; sets maximum feedrates, mm/sec
M204 P1250 R1250 T1250 ; sets acceleration (P, T) and retract acceleration (R), mm/sec^2
M205 X8.00 Y8.00 Z2.00 E10.00 ; sets the jerk limits, mm/sec
M205 S0 T0 ; sets the minimum extruding and travel feed rate, mm/sec
M107
;TYPE:Custom
G90 ; use absolute coordinates
M83 ; extruder relative mode
M104 S170 ; set extruder temp for bed leveling
M140 S60 ; set bed temp
M109 R170 ; wait for bed leveling temp
M190 S60 ; wait for bed temp
G28 ; home all without mesh bed level
G29 ; mesh bed leveling 
M104 S215 ; set extruder temp
G92 E0.0
G1 Y-2.0 X179 F2400
G1 Z3 F720
M109 S215 ; wait for extruder temp

; intro line
G1 X170 F1000
G1 Z0.2 F720
G1 X110.0 E8.0 F900
G1 X40.0 E10.0 F700
G92 E0.0

M221 S95 ; set flow
G21 ; set units to millimeters
G90 ; use absolute coordinates
M83 ; use relative distances for extrusion
M900 K0.2 ; Filament gcode LA 1.5
; ; Filament gcode LA 1.0
;LAYER_CHANGE
;Z:0.2
;HEIGHT:0.2
;BEFORE_LAYER_CHANGE
G92 E0.0
;0.2


G1 E-3.20000 F4200.000
G1 Z0.200 F9000.000
;AFTER_LAYER_CHANGE
;0.2
G1 Z0.400
G1 X36.021 Y36.249
G1 Z0.200
G1 E3.20000 F2400.000
M204 S800
;TYPE:Skirt
;WIDTH:0.42
G1 F1200.000
G1 X38.243 Y34.396 E0.09072
G1 X40.660 Y33.100 E0.08598
G1 X43.305 Y32.294 E0.08669
G1 X45.946 Y32.025 E0.08324
G1 X133.954 Y32.023 E2.75942
G1 X136.686 Y32.292 E0.08607
G1 X139.317 Y33.090 E0.08622
G1 X141.742 Y34.386 E0.08622
G1 X143.857 Y36.120 E0.08574
G1 X145.613 Y38.256 E0.08669
G1 X146.903 Y40.667 E0.08574
G1 X147.704 Y43.298 E0.08622
G1 X147.967 Y45.836 E0.08002
G1 X147.975 Y134.049 E2.76586
M73 P0 R70
G1 X147.706 Y136.693 E0.08333
G1 X146.911 Y139.313 E0.08586
G1 X145.620 Y141.733 E0.08598
G1 X143.979 Y143.751 E0.08157
G1 X141.757 Y145.604 E0.09072
G1 X139.333 Y146.903 E0.08622
G1 X136.688 Y147.707 E0.08669
G1 X133.955 Y147.977 E0.08610
G1 X45.951 Y147.975 E2.75930
G1 X43.307 Y147.706 E0.08333
G1 X40.687 Y146.911 E0.08586
G1 X38.267 Y145.620 E0.08598
G1 X36.249 Y143.979 E0.08157
G1 X34.396 Y141.757 E0.09072
G1 X33.097 Y139.333 E0.08622
G1 X32.293 Y136.688 E0.08669
G1 X32.023 Y133.955 E0.08610
G1 X32.025 Y45.951 E2.75930
G1 X32.294 Y43.307 E0.08333
G1 X33.089 Y40.687 E0.08586
G1 X34.380 Y38.267 E0.08598
G1 X35.984 Y36.296 E0.07969
M204 S1250
; printing object chip.stl id:8 copy 0
G1 E-2.24000 F4200.000
;WIPE_START
G1 F7200.000
G1 X37.243 Y35.237 E-0.91200
;WIPE_END
G1 E-0.04800 F4200.000
G1 Z0.400 F9000.000
G1 X123.300 Y43.932
G1 Z0.200
G1 E3.20000 F2400.000
M204 S800
;TYPE:Perimeter
G1 F1200.000
G1 X123.917 Y41.894 E0.06675
G1 X124.921 Y40.017 E0.06675
G1 X126.271 Y38.371 E0.06675
G1 X127.917 Y37.021 E0.06675
G1 X129.794 Y36.017 E0.06675
G1 X131.831 Y35.400 E0.06675
G1 X133.950 Y35.191 E0.06675
G1 X136.069 Y35.400 E0.06675
G1 X138.106 Y36.017 E0.06675
G1 X139.983 Y37.021 E0.06675
G1 X141.629 Y38.371 E0.06675
G1 X142.979 Y40.017 E0.06675
G1 X143.983 Y41.894 E0.06675
G1 X144.600 Y43.931 E0.06675
G1 X144.809 Y46.050 E0.06675
G1 X144.600 Y48.169 E0.06675
G1 X143.983 Y50.206 E0.06675
G1 X142.979 Y52.083 E0.06675
G1 X141.629 Y53.729 E0.06675
G1 X139.983 Y55.079 E0.06675
G1 X138.106 Y56.083 E0.06675
G1 X136.069 Y56.700 E0.06675
G1 X133.950 Y56.909 E0.06675
G1 X131.832 Y56.700 E0.06675
G1 X129.794 Y56.083 E0.06675
G1 X127.917 Y55.079 E0.06675
G1 X126.271 Y53.729 E0.06675
G1 X124.921 Y52.083 E0.06675
G1 X123.917 Y50.206 E0.06675
G1 X123.300 Y48.169 E0.06675
G1 X123.091 Y46.050 E0.06675
G1 X123.294 Y43.991 E0.06486
M204 S1250
G1 X122.918 Y43.954 F9000.000
M204 S800
;TYPE:External perimeter
M73 P1 R70
G1 F1200.000
G1 X122.928 Y43.858 E0.00305
G1 X123.567 Y41.749 E0.06907
G1 X124.606 Y39.806 E0.06907
G1 X126.004 Y38.104 E0.06907
G1 X127.706 Y36.706 E0.06907
G1 X129.649 Y35.667 E0.06907
G1 X131.758 Y35.028 E0.06907
G1 X133.950 Y34.812 E0.06907
G1 X136.142 Y35.028 E0.06907
G1 X138.251 Y35.667 E0.06907
G1 X140.194 Y36.706 E0.06907
G1 X141.896 Y38.104 E0.06907
G1 X143.294 Y39.806 E0.06907
G1 X144.333 Y41.749 E0.06907
G1 X144.972 Y43.858 E0.06907
G1 X145.188 Y46.050 E0.06907
G1 X144.972 Y48.242 E0.06907
G1 X144.333 Y50.351 E0.06907
G1 X143.294 Y52.294 E0.06907
G1 X141.896 Y53.996 E0.06907
G1 X140.194 Y55.394 E0.06907
G1 X138.251 Y56.433 E0.06907
G1 X136.142 Y57.072 E0.06907
G1 X133.950 Y57.288 E0.06907
G1 X131.758 Y57.072 E0.06907
G1 X129.649 Y56.433 E0.06907
G1 X127.707 Y55.394 E0.06907
G1 X126.004 Y53.996 E0.06907
G1 X124.606 Y52.294 E0.06907
G1 X123.567 Y50.351 E0.06907
G1 X122.928 Y48.242 E0.06907
G1 X122.712 Y46.050 E0.06907
G1 X122.913 Y44.014 E0.06415
M204 S1250
G1 X123.005 Y43.911 F9000.000
G1 E-2.24000 F4200.000
;WIPE_START
G1 F7200.000
G1 X122.928 Y43.858 E-0.08708
G1 X123.360 Y42.433 E-0.82492
;WIPE_END
G1 E-0.04800 F4200.000
G1 Z0.400 F9000.000
G1 X143.439 Y41.117
G1 Z0.200
G1 E3.20000 F2400.000
M204 S800
;TYPE:Solid infill
;WIDTH:0.420618
G1 F1200.000
G1 X139.297 Y36.975 E0.18396
G1 X138.149 Y36.361 E0.04086
G1 X143.639 Y41.851 E0.24381
G1 X143.720 Y42.003 E0.00542
G1 X143.922 Y42.668 E0.02182
G1 X137.332 Y36.078 E0.29268
G1 X136.565 Y35.846 E0.02516
G1 X144.154 Y43.435 E0.33707
G1 X144.322 Y43.987 E0.01812
G1 X144.338 Y44.153 E0.00523
G1 X135.847 Y35.662 E0.37712
G1 X135.255 Y35.604 E0.01870
G1 X144.396 Y44.745 E0.40603
G1 X144.455 Y45.338 E0.01870
G1 X134.662 Y35.545 E0.43493
G1 X134.070 Y35.487 E0.01870
G1 X144.513 Y45.930 E0.46384
G1 X144.525 Y46.050 E0.00378
G1 X144.487 Y46.438 E0.01225
G1 X133.562 Y35.513 E0.48522
G1 X133.076 Y35.561 E0.01535
G1 X144.439 Y46.924 E0.50469
G1 X144.391 Y47.411 E0.01535
G1 X132.589 Y35.609 E0.52416
G1 X132.103 Y35.657 E0.01535
G1 X144.343 Y47.897 E0.54363
G1 X144.322 Y48.113 E0.00683
G1 X144.253 Y48.341 E0.00747
G1 X131.659 Y35.747 E0.55933
G1 X131.250 Y35.872 E0.01345
G1 X144.128 Y48.750 E0.57201
G1 X144.004 Y49.160 E0.01345
G1 X130.840 Y35.996 E0.58469
G1 X130.430 Y36.120 E0.01345
G1 X143.880 Y49.570 E0.59737
G1 X143.755 Y49.980 E0.01345
G1 X130.020 Y36.245 E0.61005
G1 X129.903 Y36.280 E0.00384
G1 X129.654 Y36.413 E0.00886
G1 X143.587 Y50.346 E0.61881
G1 X143.401 Y50.694 E0.01240
G1 X129.306 Y36.599 E0.62601
G1 X128.958 Y36.785 E0.01240
G1 X143.215 Y51.042 E0.63320
G1 X143.029 Y51.390 E0.01240
G1 X128.610 Y36.971 E0.64040
G1 X128.262 Y37.157 E0.01240
G1 X142.843 Y51.738 E0.64760
G1 X142.743 Y51.925 E0.00666
G1 X142.631 Y52.061 E0.00551
G1 X127.939 Y37.369 E0.65254
G1 X127.646 Y37.609 E0.01192
G1 X142.391 Y52.354 E0.65488
G1 X142.150 Y52.648 E0.01192
G1 X127.352 Y37.850 E0.65722
G1 X127.059 Y38.091 E0.01192
G1 X141.909 Y52.941 E0.65955
G1 X141.668 Y53.234 E0.01192
G1 X126.766 Y38.332 E0.66189
G1 X126.472 Y38.572 E0.01192
G1 X141.428 Y53.528 E0.66423
G1 X141.134 Y53.768 E0.01192
G1 X126.232 Y38.866 E0.66189
G1 X125.991 Y39.159 E0.01192
G1 X140.841 Y54.009 E0.65955
G1 X140.547 Y54.250 E0.01192
G1 X125.750 Y39.453 E0.65722
G1 X125.509 Y39.746 E0.01192
G1 X140.254 Y54.491 E0.65488
G1 X139.961 Y54.731 E0.01192
G1 X125.269 Y40.039 E0.65254
G1 X125.157 Y40.175 E0.00551
G1 X125.057 Y40.362 E0.00667
G1 X139.638 Y54.943 E0.64759
G1 X139.290 Y55.129 E0.01240
G1 X124.871 Y40.710 E0.64040
G1 X124.685 Y41.058 E0.01240
G1 X138.942 Y55.315 E0.63320
G1 X138.594 Y55.501 E0.01240
G1 X124.499 Y41.406 E0.62600
G1 X124.313 Y41.754 E0.01240
G1 X138.246 Y55.687 E0.61881
G1 X137.997 Y55.820 E0.00886
G1 X137.880 Y55.855 E0.00384
G1 X124.145 Y42.120 E0.61004
G1 X124.020 Y42.530 E0.01345
G1 X137.470 Y55.980 E0.59736
G1 X137.060 Y56.104 E0.01345
G1 X123.896 Y42.940 E0.58468
G1 X123.772 Y43.350 E0.01345
G1 X136.650 Y56.228 E0.57200
M73 P2 R70
G1 X136.241 Y56.353 E0.01345
G1 X123.647 Y43.759 E0.55932
M73 P2 R69
G1 X123.578 Y43.987 E0.00746
G1 X123.557 Y44.203 E0.00683
G1 X135.797 Y56.443 E0.54362
G1 X135.310 Y56.491 E0.01535
G1 X123.509 Y44.690 E0.52415
G1 X123.461 Y45.176 E0.01535
G1 X134.824 Y56.539 E0.50468
G1 X134.338 Y56.587 E0.01535
G1 X123.413 Y45.662 E0.48521
G1 X123.375 Y46.050 E0.01224
G1 X123.387 Y46.170 E0.00378
G1 X133.830 Y56.613 E0.46383
G1 X133.238 Y56.555 E0.01870
G1 X123.445 Y46.762 E0.43493
G1 X123.504 Y47.355 E0.01870
G1 X132.645 Y56.496 E0.40602
G1 X132.053 Y56.438 E0.01870
G1 X123.562 Y47.947 E0.37711
G1 X123.578 Y48.113 E0.00523
G1 X123.746 Y48.665 E0.01812
G1 X131.335 Y56.254 E0.33706
G1 X130.568 Y56.022 E0.02516
G1 X123.978 Y49.432 E0.29267
G1 X124.180 Y50.097 E0.02182
G1 X124.262 Y50.249 E0.00543
G1 X129.751 Y55.738 E0.24379
G1 X128.603 Y55.125 E0.04086
G1 X124.462 Y50.984 E0.18394
M204 S1250
; stop printing object chip.stl id:8 copy 0
; printing object chip.stl id:6 copy 0
G1 E-2.24000 F4200.000
;WIPE_START
G1 F7200.000
G1 X125.625 Y52.147 E-0.91200
;WIPE_END
G1 E-0.04800 F4200.000
G1 Z0.400 F9000.000
G1 X115.290 Y48.202
G1 Z0.200
G1 E3.20000 F2400.000
M204 S800
;TYPE:Perimeter
;WIDTH:0.42
G1 F1200.000
G1 X114.683 Y50.206 E0.06566
G1 X113.679 Y52.083 E0.06675
G1 X112.329 Y53.729 E0.06675
G1 X110.683 Y55.079 E0.06675
G1 X108.806 Y56.083 E0.06675
G1 X106.769 Y56.700 E0.06675
G1 X104.650 Y56.909 E0.06675
G1 X102.532 Y56.700 E0.06675
G1 X100.494 Y56.083 E0.06675
G1 X98.617 Y55.079 E0.06675
G1 X96.971 Y53.729 E0.06675
G1 X95.621 Y52.083 E0.06675
G1 X94.617 Y50.206 E0.06675
G1 X94.000 Y48.169 E0.06675
G1 X93.791 Y46.050 E0.06675
G1 X94.000 Y43.932 E0.06675
G1 X94.617 Y41.894 E0.06675
G1 X95.621 Y40.017 E0.06675
G1 X96.971 Y38.371 E0.06675
G1 X98.617 Y37.021 E0.06675
G1 X100.494 Y36.017 E0.06675
G1 X102.531 Y35.400 E0.06675
G1 X104.650 Y35.191 E0.06675
G1 X106.769 Y35.400 E0.06675
G1 X108.806 Y36.017 E0.06675
G1 X110.683 Y37.021 E0.06675
G1 X112.329 Y38.371 E0.06675
G1 X113.679 Y40.017 E0.06675
G1 X114.683 Y41.894 E0.06675
G1 X115.300 Y43.931 E0.06675
G1 X115.509 Y46.050 E0.06675
G1 X115.303 Y48.143 E0.06595
M204 S1250
G1 X115.678 Y48.180 F9000.000
M204 S800
;TYPE:External perimeter
G1 F1200.000
G1 X115.033 Y50.351 E0.07100
G1 X113.994 Y52.294 E0.06907
G1 X112.596 Y53.996 E0.06907
G1 X110.894 Y55.394 E0.06907
G1 X108.951 Y56.433 E0.06907
G1 X106.842 Y57.072 E0.06907
G1 X104.650 Y57.288 E0.06907
G1 X102.458 Y57.072 E0.06907
G1 X100.349 Y56.433 E0.06907
G1 X98.407 Y55.394 E0.06907
G1 X96.704 Y53.996 E0.06907
G1 X95.306 Y52.294 E0.06907
G1 X94.267 Y50.351 E0.06907
G1 X93.628 Y48.242 E0.06907
G1 X93.412 Y46.050 E0.06907
G1 X93.628 Y43.858 E0.06907
G1 X94.267 Y41.749 E0.06907
G1 X95.306 Y39.806 E0.06907
G1 X96.704 Y38.104 E0.06907
G1 X98.406 Y36.706 E0.06907
G1 X100.349 Y35.667 E0.06907
G1 X102.458 Y35.028 E0.06907
G1 X104.650 Y34.812 E0.06907
G1 X106.842 Y35.028 E0.06907
G1 X108.951 Y35.667 E0.06907
G1 X110.894 Y36.706 E0.06907
G1 X112.596 Y38.104 E0.06907
G1 X113.994 Y39.806 E0.06907
G1 X115.033 Y41.749 E0.06907
G1 X115.672 Y43.858 E0.06907
G1 X115.888 Y46.050 E0.06907
G1 X115.684 Y48.120 E0.06523
M204 S1250
G1 X115.300 Y48.310 F9000.000
G1 E-2.24000 F4200.000
;WIPE_START
G1 F7200.000
G1 X115.223 Y49.700 E-0.91200
;WIPE_END
G1 E-0.04800 F4200.000
G1 Z0.400 F9000.000
G1 X114.139 Y41.117
G1 Z0.200
G1 E3.20000 F2400.000
M204 S800
;TYPE:Solid infill
;WIDTH:0.420618
G1 F1200.000
G1 X109.997 Y36.975 E0.18396
G1 X108.849 Y36.361 E0.04086
G1 X114.339 Y41.851 E0.24381
G1 X114.420 Y42.003 E0.00542
G1 X114.622 Y42.668 E0.02182
G1 X108.032 Y36.078 E0.29268
G1 X107.265 Y35.846 E0.02516
G1 X114.854 Y43.435 E0.33707
G1 X115.022 Y43.987 E0.01812
G1 X115.038 Y44.153 E0.00523
G1 X106.547 Y35.662 E0.37712
G1 X105.955 Y35.604 E0.01870
G1 X115.096 Y44.745 E0.40603
G1 X115.155 Y45.338 E0.01870
G1 X105.362 Y35.545 E0.43493
G1 X104.770 Y35.487 E0.01870
G1 X115.213 Y45.930 E0.46384
G1 X115.225 Y46.050 E0.00378
G1 X115.187 Y46.438 E0.01225
G1 X104.262 Y35.513 E0.48522
G1 X103.776 Y35.561 E0.01535
G1 X115.139 Y46.924 E0.50469
G1 X115.091 Y47.411 E0.01535
G1 X103.289 Y35.609 E0.52416
G1 X102.803 Y35.657 E0.01535
G1 X115.043 Y47.897 E0.54363
G1 X115.022 Y48.113 E0.00683
G1 X114.953 Y48.341 E0.00747
G1 X102.359 Y35.747 E0.55933
G1 X101.950 Y35.872 E0.01345
G1 X114.828 Y48.750 E0.57201
G1 X114.704 Y49.160 E0.01345
G1 X101.540 Y35.996 E0.58469
G1 X101.130 Y36.120 E0.01345
G1 X114.580 Y49.570 E0.59737
G1 X114.455 Y49.980 E0.01345
G1 X100.720 Y36.245 E0.61005
G1 X100.603 Y36.280 E0.00384
G1 X100.354 Y36.413 E0.00886
G1 X114.287 Y50.346 E0.61881
G1 X114.101 Y50.694 E0.01240
G1 X100.006 Y36.599 E0.62601
G1 X99.658 Y36.785 E0.01240
G1 X113.915 Y51.042 E0.63320
G1 X113.729 Y51.390 E0.01240
G1 X99.310 Y36.971 E0.64040
G1 X98.962 Y37.157 E0.01240
G1 X113.543 Y51.738 E0.64760
G1 X113.443 Y51.925 E0.00666
G1 X113.331 Y52.061 E0.00551
G1 X98.639 Y37.369 E0.65254
G1 X98.346 Y37.609 E0.01192
G1 X113.091 Y52.354 E0.65488
G1 X112.850 Y52.648 E0.01192
G1 X98.052 Y37.850 E0.65722
G1 X97.759 Y38.091 E0.01192
G1 X112.609 Y52.941 E0.65955
G1 X112.368 Y53.234 E0.01192
G1 X97.466 Y38.332 E0.66189
G1 X97.172 Y38.572 E0.01192
G1 X112.128 Y53.528 E0.66423
G1 X111.834 Y53.768 E0.01192
G1 X96.932 Y38.866 E0.66189
M73 P3 R69
G1 X96.691 Y39.159 E0.01192
G1 X111.541 Y54.009 E0.65955
G1 X111.247 Y54.250 E0.01192
G1 X96.450 Y39.453 E0.65722
G1 X96.209 Y39.746 E0.01192
G1 X110.954 Y54.491 E0.65488
G1 X110.661 Y54.731 E0.01192
G1 X95.969 Y40.039 E0.65254
G1 X95.857 Y40.175 E0.00551
G1 X95.757 Y40.362 E0.00667
G1 X110.338 Y54.943 E0.64759
G1 X109.990 Y55.129 E0.01240
G1 X95.571 Y40.710 E0.64040
G1 X95.385 Y41.058 E0.01240
G1 X109.642 Y55.315 E0.63320
G1 X109.294 Y55.501 E0.01240
G1 X95.199 Y41.406 E0.62600
G1 X95.013 Y41.754 E0.01240
G1 X108.946 Y55.687 E0.61881
G1 X108.697 Y55.820 E0.00886
G1 X108.580 Y55.855 E0.00384
G1 X94.845 Y42.120 E0.61004
G1 X94.720 Y42.530 E0.01345
G1 X108.170 Y55.980 E0.59736
G1 X107.760 Y56.104 E0.01345
G1 X94.596 Y42.940 E0.58468
G1 X94.472 Y43.350 E0.01345
G1 X107.350 Y56.228 E0.57200
G1 X106.941 Y56.353 E0.01345
G1 X94.347 Y43.759 E0.55932
G1 X94.278 Y43.987 E0.00746
G1 X94.257 Y44.203 E0.00683
G1 X106.497 Y56.443 E0.54362
G1 X106.010 Y56.491 E0.01535
G1 X94.209 Y44.690 E0.52415
G1 X94.161 Y45.176 E0.01535
G1 X105.524 Y56.539 E0.50468
G1 X105.038 Y56.587 E0.01535
G1 X94.113 Y45.662 E0.48521
M73 P3 R68
G1 X94.075 Y46.050 E0.01224
G1 X94.087 Y46.170 E0.00378
G1 X104.530 Y56.613 E0.46383
G1 X103.938 Y56.555 E0.01870
G1 X94.145 Y46.762 E0.43493
G1 X94.204 Y47.355 E0.01870
G1 X103.345 Y56.496 E0.40602
G1 X102.753 Y56.438 E0.01870
G1 X94.262 Y47.947 E0.37711
G1 X94.278 Y48.113 E0.00523
G1 X94.446 Y48.665 E0.01812
G1 X102.035 Y56.254 E0.33706
G1 X101.268 Y56.022 E0.02516
G1 X94.678 Y49.432 E0.29267
G1 X94.880 Y50.097 E0.02182
G1 X94.962 Y50.249 E0.00543
G1 X100.451 Y55.738 E0.24379
G1 X99.303 Y55.125 E0.04086
G1 X95.162 Y50.984 E0.18394
M204 S1250
; stop printing object chip.stl id:6 copy 0
; printing object chip.stl id:7 copy 0
G1 E-2.24000 F4200.000
;WIPE_START
G1 F7200.000
G1 X96.325 Y52.147 E-0.91200
;WIPE_END
G1 E-0.04800 F4200.000
G1 Z0.400 F9000.000
G1 X85.990 Y48.202
G1 Z0.200
G1 E3.20000 F2400.000
M204 S800
;TYPE:Perimeter
;WIDTH:0.42
G1 F1200.000
G1 X85.383 Y50.206 E0.06566
G1 X84.379 Y52.083 E0.06675
G1 X83.029 Y53.729 E0.06675
G1 X81.383 Y55.079 E0.06675
G1 X79.506 Y56.083 E0.06675
G1 X77.469 Y56.700 E0.06675
G1 X75.350 Y56.909 E0.06675
G1 X73.232 Y56.700 E0.06675
G1 X71.194 Y56.083 E0.06675
G1 X69.317 Y55.079 E0.06675
G1 X67.671 Y53.729 E0.06675
G1 X66.321 Y52.083 E0.06675
G1 X65.317 Y50.206 E0.06675
G1 X64.700 Y48.169 E0.06675
G1 X64.491 Y46.050 E0.06675
G1 X64.700 Y43.932 E0.06675
G1 X65.317 Y41.894 E0.06675
G1 X66.321 Y40.017 E0.06675
G1 X67.671 Y38.371 E0.06675
G1 X69.317 Y37.021 E0.06675
G1 X71.194 Y36.017 E0.06675
G1 X73.231 Y35.400 E0.06675
G1 X75.350 Y35.191 E0.06675
G1 X77.469 Y35.400 E0.06675
G1 X79.506 Y36.017 E0.06675
G1 X81.383 Y37.021 E0.06675
G1 X83.029 Y38.371 E0.06675
G1 X84.379 Y40.017 E0.06675
G1 X85.383 Y41.894 E0.06675
G1 X86.000 Y43.931 E0.06675
G1 X86.209 Y46.050 E0.06675
G1 X86.003 Y48.143 E0.06595
M204 S1250
